src/icons/categories/book.svg

<svg width="22" height="33" viewBox="0 0 22 33" fill="none" xmlns="http://www.w3.org/2000/svg">
<path d="M0.90451 25.2445C1.24491 24.9638 1.6534 24.7606 2.10078 24.6832V1.68787C1.41025 1.9395 0.90451 2.59761 0.90451 3.37187V25.2445Z" fill="#55707A"/>
<path d="M2.10077 32.5128C2.10077 32.6773 2.1883 32.8225 2.33419 32.9096C2.48008 32.987 2.65514 32.987 2.7913 32.8999L3.97785 32.1838L5.1644 32.8999C5.23248 32.9387 5.32001 32.9677 5.39781 32.9677C5.47562 32.9677 5.55343 32.9483 5.62151 32.9096C5.7674 32.8322 5.85493 32.6773 5.85493 32.5128V29.7255H21.2022C21.4551 29.7255 21.6593 29.5223 21.6593 29.2706V25.0897V1.13621C21.6593 0.884577 21.4551 0.681335 21.2022 0.681335H2.70377C2.66487 0.681335 2.62596 0.681335 2.58706 0.681335C2.57734 0.681335 2.56761 0.681335 2.55788 0.681335C2.51898 0.681335 2.4898 0.681335 2.46063 0.691014C1.07956 0.81683 0 1.96853 0 3.37187V27.035C0 27.064 0 27.0834 0 27.1124C0 27.1414 0 27.1608 0 27.1898C0 28.4383 0.904499 29.4739 2.10077 29.6868V32.5128ZM4.21127 31.2643C4.14319 31.2256 4.05566 31.1966 3.97785 31.1966C3.90004 31.1966 3.81251 31.2159 3.74443 31.2643L3.00527 31.7095V29.2803V27.6447H4.95043V31.7192L4.21127 31.2643ZM5.40754 26.735H2.55788C2.30501 26.735 2.10077 26.9382 2.10077 27.1898V28.7674C1.41024 28.5738 0.904499 27.935 0.904499 27.1898C0.904499 26.2898 1.64366 25.5542 2.54816 25.5542H20.7451V26.2801H11.9725C11.8168 26.2801 11.6904 26.4059 11.6904 26.5607C11.6904 26.7156 11.8168 26.8414 11.9725 26.8414H20.7451V27.364H17.0104C16.8548 27.364 16.7284 27.4899 16.7284 27.6447C16.7284 27.7996 16.8548 27.9254 17.0104 27.9254H20.7451V28.8254H5.85493V27.1898C5.85493 26.9382 5.65069 26.735 5.40754 26.735ZM20.7451 24.6445H3.00527V1.5814H20.7451V24.6445ZM2.10077 1.68786V24.6832C1.65338 24.7606 1.2449 24.9639 0.904499 25.2445V3.37187C0.904499 2.59761 1.41024 1.9395 2.10077 1.68786Z" fill="#37474F"/>
<path d="M11.9822 26.2704H20.7548V25.5445H2.55787C1.90624 25.5445 1.33242 25.9317 1.06982 26.4833H11.7098C11.739 26.3575 11.846 26.2704 11.9822 26.2704Z" fill="#F8F8ED"/>
<path d="M11.6904 26.5511C11.6904 26.522 11.6904 26.5027 11.7001 26.4736H1.06985C0.962865 26.6866 0.90451 26.9285 0.90451 27.1801C0.90451 27.9254 1.41025 28.5641 2.10078 28.7577V27.1801C2.10078 26.9285 2.30502 26.7253 2.5579 26.7253H5.40755C5.66042 26.7253 5.86466 26.9285 5.86466 27.1801V28.8157H20.7549V27.9157H17.0201C16.8645 27.9157 16.7381 27.7899 16.7381 27.635C16.7381 27.4802 16.8645 27.3543 17.0201 27.3543H20.7549V26.8317H11.9822C11.8266 26.8414 11.6904 26.7156 11.6904 26.5511Z" fill="#E7EFE7"/>
<path d="M4.44467 1.58142H3.00525V24.6445H4.44467V1.58142Z" fill="#F0592C"/>
<path d="M20.7451 1.58142H4.44467V24.6445H20.7451V1.58142Z" fill="#F27049"/>
<path d="M3.00525 27.635V29.2706V31.6998L3.74441 31.2546C3.81249 31.2159 3.90002 31.1869 3.97783 31.1869C4.05563 31.1869 4.14317 31.2063 4.21125 31.2546L4.95041 31.6998V29.561L3.00525 27.635Z" fill="#FDD836"/>
<path d="M4.95041 27.635H3.00525L4.95041 29.5706V27.635Z" fill="#F9C12E"/>
</svg>

<svg viewBox="0 0 22 33" fill="none" xmlns="http://www.w3.org/2000/svg"><path d="M.905 25.244a2.58 2.58 0 011.196-.56V1.687c-.69.252-1.196.91-1.196 1.684v21.872z" fill="#55707A"/><path d="M2.1 32.513a.454.454 0 00.69.387l1.188-.716 1.186.716a.5.5 0 00.234.068.454.454 0 00.457-.455v-2.787h15.347a.455.455 0 00.457-.455V1.136a.455.455 0 00-.457-.455H2.557c-.038 0-.067 0-.096.01A2.699 2.699 0 000 3.371V27.19a2.54 2.54 0 002.1 2.497v2.826zm2.111-1.249a.501.501 0 00-.233-.067.41.41 0 00-.234.067l-.739.445v-4.064H4.95v4.074l-.739-.455zm1.197-4.529h-2.85a.455.455 0 00-.457.455v1.577A1.644 1.644 0 01.904 27.19c0-.9.74-1.636 1.644-1.636h18.197v.726h-8.773a.282.282 0 00-.282.28c0 .156.127.281.283.281h8.772v.523H17.01a.282.282 0 00-.282.28c0 .156.127.281.282.281h3.735v.9H5.855V27.19a.453.453 0 00-.447-.455zm15.337-2.09H3.005V1.58h17.74v23.064zM2.101 1.688v22.995a2.58 2.58 0 00-1.197.561V3.372c0-.774.506-1.432 1.197-1.684z" fill="#37474F"/><path d="M11.982 26.27h8.773v-.726H2.558c-.652 0-1.226.388-1.488.94h10.64a.272.272 0 01.272-.214z" fill="#F8F8ED"/><path d="M11.69 26.551c0-.029 0-.048.01-.077H1.07a1.574 1.574 0 00-.165.706c0 .745.505 1.384 1.196 1.578V27.18c0-.252.204-.455.457-.455h2.85c.252 0 .457.203.457.455v1.636h14.89v-.9H17.02a.282.282 0 01-.282-.281c0-.155.127-.28.282-.28h3.735v-.523h-8.773a.278.278 0 01-.292-.28z" fill="#E7EFE7"/><path d="M4.445 1.581h-1.44v23.063h1.44V1.582z" fill="#F0592C"/><path d="M20.745 1.581h-16.3v23.063h16.3V1.582z" fill="#F27049"/><path d="M3.005 27.635V31.7l.74-.445a.501.501 0 01.233-.068.41.41 0 01.233.068l.74.445V29.56l-1.946-1.926z" fill="#FDD836"/><path d="M4.95 27.635H3.005l1.945 1.936v-1.936z" fill="#F9C12E"/></svg>
